pix_core/a/refresh.svg

<svg preserveAspectRatio="xMinYMid meet" viewBox="0 0 512 512" xmlns="http://www.w3.org/2000/svg"><path d="m105.1 202.6c7.7-21.8 20.2-42.3 37.8-59.8 62.5-62.5 163.8-62.5 226.3 0l17.1 17.2h-34.3c-17.7 0-32 14.3-32 32s14.3 32 32 32h111.5.4c17.7 0 32-14.3 32-32v-112c0-17.7-14.3-32-32-32s-32 14.3-32 32v35.2l-17.5-17.6c-87.5-87.5-229.3-87.5-316.8 0-24.4 24.4-42 53.1-52.8 83.8-5.9 16.7 2.9 34.9 19.5 40.8s34.9-2.9 40.8-19.5zm-66.1 86.7c-5 1.5-9.8 4.2-13.7 8.2-4 4-6.7 8.8-8.1 14-.3 1.2-.6 2.5-.8 3.8-.3 1.7-.4 3.4-.4 5.1v111.6c0 17.7 14.3 32 32 32s32-14.3 32-32v-35.1l17.6 17.5c87.5 87.4 229.3 87.4 316.7 0 24.4-24.4 42.1-53.1 52.9-83.7 5.9-16.7-2.9-34.9-19.5-40.8s-34.9 2.9-40.8 19.5c-7.7 21.8-20.2 42.3-37.8 59.8-62.5 62.5-163.8 62.5-226.3 0l-.1-.1-17.1-17.1h34.4c17.7 0 32-14.3 32-32s-14.3-32-32-32h-111.6c-1.6 0-3.2.1-4.8.3s-3.1.5-4.6 1z" fill="#fff"/></svg>

<svg xmlns="http://www.w3.org/2000/svg" viewBox="0 0 512 512" preserveAspectRatio="xMinYMid meet"><path fill="#fff" d="M105.1 202.6c7.7-21.8 20.2-42.3 37.8-59.8c62.5-62.5 163.8-62.5 226.3 0L386.3 160H352c-17.7 0-32 14.3-32 32s14.3 32 32 32H463.5c0 0 0 0 0 0h.4c17.7 0 32-14.3 32-32V80c0-17.7-14.3-32-32-32s-32 14.3-32 32v35.2L414.4 97.6c-87.5-87.5-229.3-87.5-316.8 0C73.2 122 55.6 150.7 44.8 181.4c-5.9 16.7 2.9 34.9 19.5 40.8s34.9-2.9 40.8-19.5zM39 289.3c-5 1.5-9.8 4.2-13.7 8.2c-4 4-6.7 8.8-8.1 14c-.3 1.2-.6 2.5-.8 3.8c-.3 1.7-.4 3.4-.4 5.1V432c0 17.7 14.3 32 32 32s32-14.3 32-32V396.9l17.6 17.5 0 0c87.5 87.4 229.3 87.4 316.7 0c24.4-24.4 42.1-53.1 52.9-83.7c5.9-16.7-2.9-34.9-19.5-40.8s-34.9 2.9-40.8 19.5c-7.7 21.8-20.2 42.3-37.8 59.8c-62.5 62.5-163.8 62.5-226.3 0l-.1-.1L125.6 352H160c17.7 0 32-14.3 32-32s-14.3-32-32-32H48.4c-1.6 0-3.2 .1-4.8 .3s-3.1 .5-4.6 1z"/></svg>
